X: 137
T: Ticonderoga
%R: reel
B: Chas & Sam Thompson "Twenty Four Country Dances for the Year 1778", London 1778, p.69 #1
F: http://www.vwml.org/browse/browse-collections-dance-tune-books/browse-thompsons1778#
Z: 2014 John Chambers <jc:trillian.mit.edu> (added dance description)
M: 2/4
L: 1/16
K: F
% - - - - - - - - - - - - - - - - - - - - - - - - - - - - -
|:\
c2(AB c2)fe | dBdg fedc | fgaf d2ga | bgaf fedc |
c2AB c2fe | dBdg fedc | fgaf dbag | fage f4 :|
|:\
fagf gedc | gabg afcA | BdgB AcfA | GABc BAGF |
fagf gedc | gabg agfe | fac_e dbag | afg=e f4 :|
% - - - - - - - - - - Dance description - - - - - - - - - -
%%begintext align
%% The 1st Lady turn the 3d Gent: .|. the 1st Gent:
%% turn the 3d Lady :|. set 3 and 3 top & bottom
%% set 3 and 3 sideways .|: hands 6 quite round :|:
%%endtext

%%sep 1 1 500
%%sep 1 1 500
